Pods/ProtonCore-UIFoundations/libraries/UIFoundations/Sources/Assets.xcassets/Images/IconSet/ic-arrows-cross.imageset/ic-arrows-cross.svg

<svg width="24" height="24" viewBox="0 0 24 24" fill="none" xmlns="http://www.w3.org/2000/svg">
<path d="M14.696 5.88267L12.7555 3.94222V11.2561H20.0688L18.1284 9.31566C17.8355 9.02278 17.8355 8.54791 18.1284 8.25502C18.4213 7.96213 18.8961 7.96213 19.189 8.25502L22.1977 11.2636C22.6078 11.6737 22.6078 12.3385 22.1977 12.7486L19.189 15.7572C18.8961 16.0501 18.4213 16.0501 18.1284 15.7572C17.8355 15.4643 17.8355 14.9894 18.1284 14.6965L20.0688 12.7561H12.7555V20.07L14.696 18.1295C14.9888 17.8366 15.4637 17.8366 15.7566 18.1295C16.0495 18.4224 16.0495 18.8973 15.7566 19.1902L12.7479 22.1988C12.3379 22.6089 11.673 22.6089 11.263 22.1988L8.25427 19.1902C7.96138 18.8973 7.96138 18.4224 8.25427 18.1295C8.54717 17.8366 9.02205 17.8366 9.31495 18.1295L11.2555 20.07V12.7561H3.94205L5.88253 14.6965C6.17543 14.9894 6.17543 15.4643 5.88253 15.7572C5.58964 16.0501 5.11476 16.0501 4.82186 15.7572L1.81316 12.7486C1.4031 12.3385 1.4031 11.6737 1.81316 11.2636L4.82186 8.25502C5.11476 7.96213 5.58964 7.96213 5.88253 8.25502C6.17543 8.54791 6.17543 9.02278 5.88253 9.31566L3.94205 11.2561H11.2555V3.94221L9.31495 5.88267C9.02205 6.17556 8.54717 6.17556 8.25427 5.88267C7.96138 5.58978 7.96138 5.11491 8.25427 4.82202L11.263 1.81339C11.673 1.40335 12.3379 1.40335 12.7479 1.81339L15.7566 4.82202C16.0495 5.11491 16.0495 5.58978 15.7566 5.88267C15.4637 6.17556 14.9888 6.17556 14.696 5.88267Z" fill="#0C0C14"/>
</svg>

<svg xmlns="http://www.w3.org/2000/svg" width="24" height="24" viewBox="0 0 24 24">
  <g class="ic-arrows-cross">
    <path d="m14.694 5.883-1.94-1.94v7.313h7.313l-1.94-1.94a.75.75 0 1 1 1.06-1.061l3.009 3.009c.41.41.41 1.075 0 1.485l-3.009 3.008a.75.75 0 1 1-1.06-1.06l1.94-1.94h-7.313v7.313l1.94-1.94a.75.75 0 0 1 1.06 1.06l-3.007 3.01a1.05 1.05 0 0 1-1.485 0l-3.009-3.01a.75.75 0 0 1 1.06-1.06l1.94 1.94v-7.314H3.94l1.94 1.94a.75.75 0 0 1-1.06 1.061L1.811 12.75a1.05 1.05 0 0 1 0-1.485l3.01-3.009a.75.75 0 0 1 1.06 1.06l-1.94 1.941h7.313V3.942l-1.94 1.94a.75.75 0 0 1-1.061-1.06l3.008-3.009a1.05 1.05 0 0 1 1.485 0l3.009 3.009a.75.75 0 1 1-1.06 1.06Z" class="Icon"/>
  </g>
</svg>
